X:300
T:Steirer (98.)
C:traditionell
A:Salzkammergut
S:MIDI erhalten von Christian Amon. Nach einer kopie im besitz von Johann Stoeckl eines manuscriptes. Stoeckl(zitiert von Amon): "diese sammlung wurde 1935 im hause der familie Hohenlohe-Schillingfuerst gefunden. Sie wurde von einem der beiden brueder Steinegger 1866 verfasst. Die originale sind im Ausseer Kammerhofmuseum".
M:3/4
L:1/8
K:G
V:1
df |\
gz e3 g | fz d3 f | ez c3 e | d4 zB |\
cz A3 c | Bz G3 B | dz D3 F | G4 |*
V:2
ga |\
bz g3 b | az f3 a | gz e3 g | f4 zd |\
ez =c3 e | dz B3 d | fz F3 A | B4 |*
